X:77
T:Lavender's Blue
M:3/4
L:1/4
K:Cmaj
V: RH1 clef=treble
%%MIDI channel 4
%%MIDI program 1 4
%%MIDI gchordoff
V: LH1 clef=bass
%%MIDI channel 3
%%MIDI program 1 3
%%MIDI gchordoff
%
[V: RH1] |: C G G | G F/E/D/C/ | C A A | A3  |
[V: RH1] C G G | G F/E/D/C/ | F E D | C3  :|
%
